X: 997
T: Hep Sâye-i Vaslında
C: Tanburî Cemil Bey
O: Turkey
F: http://compmusic.upf.edu/node/140
N: hicaz--sarki--senginsemai--hep_saye-i--tanburi_cemil_bey
N: makam= hicaz
N: form= sarki
N: usul= senginsemai = 6/4
M: 6/4
L: 1/16
K: C _7/8B ^f ^c 
Q: 1/4=66
%%MIDI tuningsystem comma53
c3e d3c B3d c3B A8  | dcBA GABc de=fg eddc d8  | 
w:  ARANAĞME  |   | 
=f3a g3f e3g f3e d2ef edcB  | A3a g=fed c3B cBBA A8  | 
w:   |   | 
c3e d3c B3d c3B A8  | dcBA GABc de=fg eddc d8  | 
w:  ARANAĞME  |   | 
=f3a g3f e3g f3e d2ef edcB  | A3a g=fed c3B cBBA A8  | 
w:   |   | 
G3B A3G =fede cBBA A8  | d2e6 =fede d2ef edcB c4  | 
w:  Hep  *  sâ *  ye  *  *  *  i  *  *  *  vas  |  lın *  da  *  *  *  gö *  *  nül   | 
d2e2 d4 e2f2 g2a=b aggf fefe  | e8 d3c g2=fe e8  | 
w:  şâd_ *  *  o *  la *  *  cak  |  ken   SAZ  | 
d4 a3g g2(3f^ef f=c'=ba agab g2f2  | \
w:  Kim dir  *  a *  *  *  yı *  *  *  ran   | 
e3f g2fe a2gf =b2ag agfe d4  | 
w:  a  *  *  *  *  *  *  *  e *  *  fen  | 
c2de dedc eddc ag=fe fedc BAdc  | 
w:  dim  *  *  *  *  *  *  *  *  *  *  se *  ni  *  ben  | 
c8 cdcB ABAB c8  | d4 e3d e2f2 g2a2 g2=f2 e2d2  | 
w:  den   SAZ  |  Kim dir  *  a *  yı *  ran   | 
gfga g=fed c3B cBBA A8  | G2A4B2 G4 g=fed c3B cBBA  | 
w:  ah  *  *  *  *  *  *  *  *  *  e *  *  *  fen  |  dim  *  *  *  se *  ni  *  ben  | 
A8 a3^g fgfg a8  | e4 a4 a^gfg a=c'=ba a8  | \
w:  den   SAZ  |  Yıl lar ca  *  *  *  bu  *  *  *  hic  | 
=b=c'ba g2a2 b2c'd' c'bab gba2 g2f2  | 
w:  râ *  *  *  *  *  na  *  *  ta *  *  *  ham  | 
fefe e4 f4 ^g4 a2ga =b=c'ba  | ^g3=b a2g2 f2e2 c'2ba a8  | 
w:  mül  *  *  *  *  e de mem   |  ben    | 
a3=b b3a b2c'2 d'2e'2 d'2=c'2 b2a2  | \
w:  Yıl *  lar *  ca  *  bu  *  hic  | 
d'c'd'e' d'=c'=ba gbag g=ffe e8  | 
w:  râ *  *  *  *  *  *  *  na  *  *  *  ta *  *  *  ham  | 
=b2=c'4ba g3f e4 d2ef gafe  | e8 d3c g2fe e8  | 
w:  mül  *  *  *  e *  de mem   |  ben   SAZ  | 
d4 a3g g2(3f^ef f=c'=ba agab g2f2  | \
w:  Kim dir  *  a *  *  *  yı *  *  *  ran   | 
e3f g2fe a2gf =b2ag agfe d4  | 
w:  a  *  *  *  *  *  *  *  e *  *  fen  | 
c2de dedc eddc ag=fe fedc BAdc  | 
w:  dim  *  *  *  *  *  *  *  *  *  *  se *  ni  *  ben  | 
c8 cdcB ABAB c8  | d4 e3d e2f2 g2a2 g2=f2 e2d2  | 
w:  den   SAZ  |  Kim dir  *  a *  yı *  ran   | 
gfga g=fed c3B cBBA A8  | G2A4B2 G4 g=fed c3B cBBA  | 
w:  ah  *  *  *  *  *  *  *  *  *  e *  *  *  fen  |  dim  *  *  *  se *  ni  *  ben  | 
A8 |
w:  den    | 


